Numix-GalliumOS/48/categories/preferences-system-network-proxy.svg

<?xml version="1.0" encoding="UTF-8" standalone="no"?>
<svg
   xmlns:dc="http://purl.org/dc/elements/1.1/"
   xmlns:cc="http://creativecommons.org/ns#"
   xmlns:rdf="http://www.w3.org/1999/02/22-rdf-syntax-ns#"
   xmlns:svg="http://www.w3.org/2000/svg"
   xmlns="http://www.w3.org/2000/svg"
   xmlns:sodipodi="http://sodipodi.sourceforge.net/DTD/sodipodi-0.dtd"
   xmlns:inkscape="http://www.inkscape.org/namespaces/inkscape"
   width="48"
   height="48"
   viewBox="0 0 48 48"
   id="svg2"
   version="1.1"
   inkscape:version="0.91 r"
   sodipodi:docname="preferences-system-network-proxy.svg">
  <metadata
     id="metadata28">
    <rdf:RDF>
      <cc:Work
         rdf:about="">
        <dc:format>image/svg+xml</dc:format>
        <dc:type
           rdf:resource="http://purl.org/dc/dcmitype/StillImage" />
        <dc:title />
      </cc:Work>
    </rdf:RDF>
  </metadata>
  <defs
     id="defs26" />
  <sodipodi:namedview
     pagecolor="#ffffff"
     bordercolor="#666666"
     borderopacity="1"
     objecttolerance="10"
     gridtolerance="10"
     guidetolerance="10"
     inkscape:pageopacity="0"
     inkscape:pageshadow="2"
     inkscape:window-width="1920"
     inkscape:window-height="1056"
     id="namedview24"
     showgrid="true"
     inkscape:zoom="14.75"
     inkscape:cx="1.163497"
     inkscape:cy="19.671533"
     inkscape:window-x="0"
     inkscape:window-y="24"
     inkscape:window-maximized="1"
     inkscape:current-layer="svg2">
    <inkscape:grid
       type="xygrid"
       id="grid4156" />
  </sodipodi:namedview>
  <path
     style="fill:#e78684;fill-opacity:1"
     d="M 24 6 C 21.24177 6 18.636867 6.6399462 16.298828 7.7519531 L 16.132812 7.6914062 C 16.112114 7.7475696 16.094717 7.8050788 16.074219 7.8613281 C 10.115783 10.797705 6 16.916369 6 24 C 6 31.089213 10.121842 37.212842 16.087891 40.146484 C 16.11139 40.201186 16.130512 40.257943 16.154297 40.3125 L 16.300781 40.248047 C 18.638415 41.35958 21.242395 42 24 42 C 26.759156 42 29.364487 41.358803 31.703125 40.246094 L 31.851562 40.310547 C 31.875555 40.255438 31.894267 40.197835 31.917969 40.142578 C 37.880637 37.207721 42 31.086736 42 24 C 42 16.918545 37.887107 10.800722 31.931641 7.8632812 C 31.910965 7.8064544 31.893926 7.7481454 31.873047 7.6914062 L 31.703125 7.7539062 C 29.364487 6.6411972 26.759156 6 24 6 z M 23 8.0507812 L 23 15 L 25 15 L 25 8.0507812 C 26.883476 8.1669773 28.672043 8.6143265 30.320312 9.3242188 C 31.069254 11.500728 31.667453 13.736221 32.095703 16 L 30 16 L 30 18 L 32.429688 18 C 32.67194 19.664847 32.820217 21.335666 32.880859 23 L 30 23 L 30 25 L 32.908203 25 C 32.893907 26.686284 32.787952 28.357882 32.576172 30 L 30 30 L 30 32 L 32.267578 32 C 31.846048 34.311933 31.207518 36.543623 30.359375 38.660156 C 28.700441 39.378861 26.897965 39.832129 25 39.949219 L 25 33 L 23 33 L 23 39.949219 C 21.105083 39.832317 19.305179 39.380738 17.648438 38.664062 C 16.798188 36.546456 16.158843 34.313075 15.736328 32 L 18 32 L 18 30 L 15.425781 30 C 15.213692 28.358148 15.108086 26.685984 15.09375 25 L 18 25 L 18 23 L 15.121094 23 C 15.181826 21.335316 15.32952 19.665228 15.572266 18 L 18 18 L 18 16 L 15.90625 16 C 16.33532 13.735849 16.935101 11.499272 17.685547 9.3222656 C 19.332263 8.6137992 21.118676 8.1668445 23 8.0507812 z M 15.144531 10.701172 C 14.625539 12.443316 14.191712 14.21308 13.865234 16 L 10.158203 16 C 11.391807 13.872222 13.104824 12.061467 15.144531 10.701172 z M 32.863281 10.705078 C 34.899807 12.064846 36.609645 13.874727 37.841797 16 L 34.138672 16 C 33.812938 14.21469 33.380909 12.445744 32.863281 10.705078 z M 9.1621094 18 L 13.539062 18 C 13.30495 19.663866 13.16824 21.334453 13.109375 23 L 8.0488281 23 C 8.1575525 21.241251 8.5320071 19.55725 9.1621094 18 z M 34.462891 18 L 38.837891 18 C 39.467992 19.55725 39.842447 21.241251 39.951172 23 L 34.892578 23 C 34.833831 21.333939 34.696763 19.664396 34.462891 18 z M 8.0488281 25 L 13.082031 25 C 13.095586 26.682689 13.200502 28.352549 13.404297 30 L 9.1972656 30 C 8.5657792 28.439238 8.1577013 26.763194 8.0488281 25 z M 34.919922 25 L 39.951172 25 C 39.842299 26.763194 39.434221 28.439238 38.802734 30 L 34.597656 30 C 34.801181 28.352844 34.906331 26.682384 34.919922 25 z M 10.158203 32 L 13.703125 32 C 14.012499 33.774658 14.439714 35.512688 14.988281 37.199219 C 13.015047 35.851035 11.358496 34.07665 10.158203 32 z M 34.300781 32 L 37.841797 32 C 36.642412 34.075079 34.986883 35.847497 33.015625 37.195312 C 33.562984 35.509915 33.991982 33.773367 34.300781 32 z "
     id="path6" />
  <rect
     style="opacity:1;fill:none;fill-opacity:1;fill-rule:nonzero;stroke:#e78684;stroke-width:2;stroke-linecap:round;stroke-linejoin:miter;stroke-miterlimit:4;stroke-dasharray:none;stroke-dashoffset:0;stroke-opacity:1"
     id="rect4185"
     width="12"
     height="18"
     x="18"
     y="15"
     rx="0.088183403"
     ry="0.084290698" />
  <circle
     style="opacity:1;fill:#e78684;fill-opacity:1;fill-rule:nonzero;stroke:none;stroke-width:2;stroke-linecap:round;stroke-linejoin:miter;stroke-miterlimit:4;stroke-dasharray:none;stroke-dashoffset:0;stroke-opacity:1"
     id="path4203"
     cx="26"
     cy="24"
     r="1.5" />
</svg>

<svg xmlns="http://www.w3.org/2000/svg" viewBox="0 0 48 48">
 <path d="m 24 6 c -2.758 0 -5.363 0.64 -7.701 1.752 l -0.166 -0.061 c -0.021 0.056 -0.038 0.114 -0.059 0.17 c -5.958 2.936 -10.07 9.06 -10.07 16.14 c 0 7.089 4.122 13.213 10.09 16.15 c 0.023 0.055 0.043 0.111 0.066 0.166 l 0.146 -0.064 c 2.338 1.112 4.942 1.752 7.699 1.752 c 2.759 0 5.364 -0.641 7.703 -1.754 l 0.148 0.064 c 0.024 -0.055 0.043 -0.113 0.066 -0.168 c 5.963 -2.935 10.08 -9.06 10.08 -16.14 c 0 -7.081 -4.113 -13.199 -10.07 -16.14 c -0.021 -0.057 -0.038 -0.115 -0.059 -0.172 l -0.17 0.063 c -2.339 -1.113 -4.944 -1.754 -7.703 -1.754 z m -1 2.051 l 0 6.949 l 2 0 l 0 -6.949 c 1.883 0.116 3.672 0.564 5.32 1.273 c 0.749 2.177 1.347 4.412 1.775 6.676 l -2.096 0 l 0 2 l 2.43 0 c 0.242 1.665 0.391 3.336 0.451 5 l -2.881 0 l 0 2 l 2.908 0 c -0.014 1.686 -0.12 3.358 -0.332 5 l -2.576 0 l 0 2 l 2.268 0 c -0.422 2.312 -1.06 4.544 -1.908 6.66 c -1.659 0.719 -3.461 1.172 -5.359 1.289 l 0 -6.949 l -2 0 l 0 6.949 c -1.895 -0.117 -3.695 -0.568 -5.352 -1.285 c -0.85 -2.118 -1.49 -4.351 -1.912 -6.664 l 2.264 0 l 0 -2 l -2.574 0 c -0.212 -1.642 -0.318 -3.314 -0.332 -5 l 2.906 0 l 0 -2 l -2.879 0 c 0.061 -1.665 0.208 -3.335 0.451 -5 l 2.428 0 l 0 -2 l -2.094 0 c 0.429 -2.264 1.029 -4.501 1.779 -6.678 c 1.647 -0.708 3.433 -1.155 5.314 -1.271 z m -7.855 2.65 c -0.519 1.742 -0.953 3.512 -1.279 5.299 l -3.707 0 c 1.234 -2.128 2.947 -3.939 4.986 -5.299 z m 17.719 0.004 c 2.037 1.36 3.746 3.17 4.979 5.295 l -3.703 0 c -0.326 -1.785 -0.758 -3.554 -1.275 -5.295 z m -23.701 7.295 l 4.377 0 c -0.234 1.664 -0.371 3.334 -0.43 5 l -5.061 0 c 0.109 -1.759 0.483 -3.443 1.113 -5 z m 25.301 0 l 4.375 0 c 0.63 1.557 1 3.241 1.113 5 l -5.059 0 c -0.059 -1.666 -0.196 -3.336 -0.43 -5 z m -26.414 7 l 5.03 0 c 0.014 1.683 0.118 3.353 0.322 5 l -4.207 0 c -0.631 -1.561 -1.04 -3.237 -1.148 -5 z m 26.871 0 l 5.03 0 c -0.109 1.763 -0.517 3.439 -1.148 5 l -4.205 0 c 0.204 -1.647 0.309 -3.318 0.322 -5 z m -24.762 7 l 3.545 0 c 0.309 1.775 0.737 3.513 1.285 5.199 c -1.973 -1.348 -3.63 -3.123 -4.83 -5.199 z m 24.14 0 l 3.541 0 c -1.199 2.075 -2.855 3.847 -4.826 5.195 c 0.547 -1.685 0.976 -3.422 1.285 -5.195 z" style="fill:#e78684;fill-opacity:1"/>
 <rect width="12" height="18" x="18" y="15" rx="0.088" ry="0.084" style="stroke-dasharray:none;stroke-opacity:1;fill:none;opacity:1;stroke-miterlimit:4;fill-opacity:1;stroke:#e78684;fill-rule:nonzero;stroke-linecap:round;stroke-linejoin:miter;stroke-width:2;stroke-dashoffset:0"/>
 <circle cx="26" cy="24" r="1.5" style="fill:#e78684;opacity:1;fill-opacity:1;stroke:none;fill-rule:nonzero"/>
</svg>
